X: 850
T: Goncasından Gülşenin
C: Emin Ongan
O: Turkey
F: http://compmusic.upf.edu/node/140
N: acemasiran--sarki--agiraksak--goncasindan_gulsenin--emin_ongan
N: makam= acemasiran
N: form= sarki
N: usul= agiraksak = 9/4
M: 9/4
L: 1/16
K: C _B   
Q: 1/4=72
%%MIDI tuningsystem comma53
z8 z2f2 e2d2 c4 f2g2 a6g2 {d'}c'2ba  | \
w:  Gon *  ca sın *  *  dan   | 
a8 z2b2 a2g2 f2e2 d2^c2 d4 e4 f4  | 
w:  *  gül *  şe nin  *  *  *  bül  | 
g2{b}ag gfed c2c4d2 e2f2 g2a2 c'2b2 a2g2 f2e2  | \
w:  *  *  *  *  *  *  *  *  *  bül  şi kâ *  *  *  yet   | 
fefa gfed c2c4a2 g2f2 e2{a}gf f6g2 agfg  | 
w:  *  *  *  *  *  *  *  *  *  ey *  *  *  *  *  le *  di   SAZ  | 
a8 z2g4a2 a2g2 f2e2 {ba}b8 g4  | a3/2b/ag fef2 z2f4a2 g2f2 e2d2 c6B2 d2cB  | 
w:  *  Hâr_ ı  mih *  *  *  *  *  net   |  *  *  *  *  *  *  *  bağ rı nı  *  *  *  del  | 
B8-B2B2 G2A2 B2c2 d2f2 _e2d2 c2B2 A2G2  | \
w:  *  miş  *  ri vâ *  *  *  yet   | 
G2AG FED2 z2F4A2 G3F EFGF F6g2 agfg  | 
w:  *  *  *  *  *  *  ey *  *  *  *  *  le *  di   SAZ  | 
a8 z2g4a2 a2g2 f2e2 {ba}b8 g4  | a3/2b/ag fef2 z2f4a2 g2f2 e2d2 c6B2 d2cB  | 
w:  *  Hâr_ ı  mih *  *  *  *  *  net   |  *  *  *  *  *  *  *  bağ rı nı  *  *  *  del  | 
B8-B2B2 G2A2 B2c2 d2f2 _e2d2 c2B2 A2G2  | \
w:  *  miş  *  ri vâ *  *  *  yet   | 
G2AG FED2 z2F4A2 G3F EFGF F6c2 _1/4B2_3/4d2  | 
w:  *  *  *  *  *  *  ey *  *  *  *  *  le *  di   SAZ  | 
c8 z2e2 _3/4d2c2 c3_1/4B A4 B4 d8  | \
w:  *  Bir  *  ga rip  *  *  ah  | 
_3/4d2c2 {d}c3_1/4B3c2 B2A2 ^G2A2 B2{c}BA A6c2 B2d2  | 
w:  *  *  *  *  *  vâ *  le  vâ *  *  *  *  *  kıf  | 
c8-c2c4d2 e2f2 g2a2 c'2b2 a2g2 f2e2  | \
w:  *  mış  hi kâ *  *  *  yet   | 
fefa gfed c2c4a2 g3f e2{a}gf f6g2 agfg  | 
w:  *  *  *  *  *  *  *  *  *  ey *  *  *  *  *  le *  di   SAZ  | 
a8 z2g4a2 a2g2 f2e2 {ba}b8 g4  | a3/2b/ag fef2 z2f4a2 g2f2 e2d2 c6B2 d2cB  | 
w:  *  Hâr_ ı  mih *  *  *  *  *  net   |  *  *  *  *  *  *  *  bağ rı nı  *  *  *  del  | 
B8-B2B2 G2A2 B2c2 d2f2 _e2d2 c2B2 A2G2  | \
w:  *  miş  *  ri vâ *  *  *  yet   | 
G2AG FED2 z2F4A2 G3F EFGF F6g2 agfg  | 
w:  *  *  *  *  *  *  ey *  *  *  *  *  le *  di   SAZ  | 
a8 z2g4a2 a2g2 f2e2 {ba}b8 g4  | a3/2b/ag fef2 z2f4a2 g2f2 e2d2 c6B2 d2cB  | 
w:  *  Hâr_ ı  mih *  *  *  *  *  net   |  *  *  *  *  *  *  *  bağ rı nı  *  *  *  del  | 
B8-B2B2 G2A2 B2c2 d2f2 _e2d2 c2B2 A2G2  | \
w:  *  miş  *  ri vâ *  *  *  yet   | 
G2AG FED2 z2F4A2 G3F EFGF F6|
w:  *  *  *  *  *  *  ey *  *  *  *  *  le *  di    | 


